src/Pure/16/symbolic/apps/org.gnome.Settings-appearance-symbolic.svg

<?xml version="1.0" encoding="UTF-8" standalone="no"?>
<svg
   width="16px"
   height="16px"
   version="1.1"
   viewBox="0 0 16 16"
   id="svg3"
   sodipodi:docname="org.gnome.Settings-appearance-symbolic.svg"
   inkscape:version="1.4.2 (ebf0e940d0, 2025-05-08)"
   xmlns:inkscape="http://www.inkscape.org/namespaces/inkscape"
   xmlns:sodipodi="http://sodipodi.sourceforge.net/DTD/sodipodi-0.dtd"
   xmlns="http://www.w3.org/2000/svg"
   xmlns:svg="http://www.w3.org/2000/svg">
  <defs
     id="defs3">
     <style
        id="current-color-scheme"
        type="text/css">
        .ColorScheme-Text { color:#363636; }
     </style>
  </defs>
  <sodipodi:namedview
     id="namedview3"
     pagecolor="#ffffff"
     bordercolor="#000000"
     borderopacity="0.25"
     inkscape:showpageshadow="2"
     inkscape:pageopacity="0.0"
     inkscape:pagecheckerboard="0"
     inkscape:deskcolor="#d1d1d1"
     inkscape:zoom="49.6875"
     inkscape:cx="8"
     inkscape:cy="8"
     inkscape:window-width="1920"
     inkscape:window-height="1010"
     inkscape:window-x="0"
     inkscape:window-y="0"
     inkscape:window-maximized="1"
     inkscape:current-layer="svg3" />
  <path
     id="path1"
     style="fill:currentColor"
     class="ColorScheme-Text"
     d="M 14.292969 0 L 10.451172 3.8417969 C 10.715492 4.0469769 10.953023 4.2845081 11.158203 4.5488281 L 15.707031 0 L 14.292969 0 z M 2 2 C 0.892 2 0 2.892 0 4 L 0 11 C 0 12.108 0.892 13 2 13 L 14 13 C 15.108 13 16 12.108 16 11 L 16 4 C 16 3.21837 15.554777 2.5460969 14.904297 2.2167969 L 14.113281 3.0078125 C 14.612991 3.0642555 15 3.48471 15 4 L 15 11 C 15 11.554 14.554 12 14 12 L 2 12 C 1.446 12 1 11.554 1 11 L 1 4 C 1 3.446 1.446 3 2 3 L 9.8789062 3 L 10.878906 2 L 2 2 z M 8.0117188 4 C 6.3554188 4 5.0117188 5.3398 5.0117188 7 L 5.0117188 10 L 8.0117188 10 C 9.6719187 10.007812 11.011719 8.6562 11.011719 7 C 11.011719 5.3398 9.6719187 4 8.0117188 4 z M 8 5 A 2 2 0 0 1 10 7 A 2 2 0 0 1 8 9 L 6 9 L 6 7 A 2 2 0 0 1 8 5 z M 4.5 14 C 4.223 14 4 14.223 4 14.5 C 4 14.777 4.223 15 4.5 15 L 11.5 15 C 11.777 15 12 14.777 12 14.5 C 12 14.223 11.777 14 11.5 14 L 4.5 14 z " />
</svg>

<svg width="16px" height="16px" version="1.1" viewBox="0 0 16 16" xmlns="http://www.w3.org/2000/svg">
 <path d="m14.293 0-3.8418 3.8418c0.26432 0.20518 0.50185 0.44271 0.70703 0.70703l4.5488-4.5488h-1.4141zm-6.2813 4c-1.6563 0-3 1.3398-3 3v3h3c1.6602 0.007812 3-1.3438 3-3 0-1.6602-1.3398-3-3-3zm-0.011719 1a2 2 0 0 1 2 2 2 2 0 0 1-2 2h-2v-2a2 2 0 0 1 2-2z" fill="#363636"/>
 <path d="m4.5 14h7c0.277 0 0.5 0.223 0.5 0.5s-0.223 0.5-0.5 0.5h-7c-0.277 0-0.5-0.223-0.5-0.5s0.223-0.5 0.5-0.5z" fill="#363636"/>
 <path d="m2 2c-1.108 0-2 0.892-2 2v7c0 1.108 0.892 2 2 2h12c1.108 0 2-0.892 2-2v-7c0-0.78163-0.44522-1.4539-1.0957-1.7832l-0.79102 0.79102c0.49971 0.056443 0.88672 0.4769 0.88672 0.99219v7c0 0.554-0.446 1-1 1h-12c-0.554 0-1-0.446-1-1v-7c0-0.554 0.446-1 1-1h7.8789l1-1h-8.8789z" fill="#363636"/>
</svg>
